!! 00000] TT[WS
!!!OTL: Xiu hebao
!!!ARE: Asia, China,ÿShanxi Linxian
!! Ethnic Group: Han
!! WI, 136
!!!SCT: J0164
!!!YEM: Copyright 1995, estate of Helmut Schaffrath.
**kern
*ICvox
*Ivox
*M3/4
*k[b-]
*F:
{8ff
8dd
4cc
4g
=1
8cc
8dd
4cc
4cc
=2
4b-
4g
8b-
8d
=3
2.c}
=4
{4f
4c
4f
=5
4g
4cc
4c
=6
4f
4d
8c
8d
=7
2.c}
==
!!!AGN: Xiaodiao. Qingge
!!!ONB: ESAC (Essen Associative Code) Database: CHINA
!!!AMT: simple triple
!!!AIN: vox
!!!EED: Helmut Schaffrath
!!!EEV: 1.0
*-
